X:1
T:Title
%%score { ( 1 4 5 ) | ( 2 3 ) }
L:1/8
Q:1/4=96
M:4/4
K:Eb
V:1 treble nm="Grand Piano"
V:4 treble 
V:5 treble 
V:2 bass 
V:3 bass 
V:1
 [G,B,E]E/E/ E/B,/E/G/ [G,B,E]E/E/ E/B,/E/G/ | EFGA B4 | [A,CF]F/F/ F/C/F/A/ [A,CF]F/F/ F/C/F/A/ | %3
w: I.~H.~Meredith * * * * * * * * * * * * *|||
 FGAB c4 | [DFB]B/B/ B/F/B/d/ [DFB]B/B/ B/F/B/d/ | Bcde fBcd | [Ge]2 [Gd]2 [B,GB]2 [Gc]2 | B4 z4 | %8
w: |||||
 z2 G2 z4 | B6 z2 | [Ge]2 [Gd]2 [B,GB]2 [Gc]2 | B4 z4 | F2 B>B G2 =A2 | [DB]6 z2 | %14
w: ||||||
 [df]3- [df]/e/ [Bd]>c [GB]>A | [EG]>F [EG]>A [GB]4 | [df]3- [df]/e/ [Bd]>c [GB]>A | %17
w: |||
 [EG]>F [EG]>A [GB]4 | c2 c>c B2 E2 | A2 [DA]2 G3 G | F2 B2 d2 c2 |[M:9/8] [DB]6- [DB] z z | %22
w: |||||
[M:4/4] z2 B,2 G2 [B,EG]2 | z2 B4 c2 | e>d c>B [Gc]>[GB] [FA]>[EG] | [DF]6 z2 | F4 A4 | %27
w: |||||
 [Ac]2 c2- [CAc]2 f>e | d>e [Ad]2 [B,FB]2 [B,FB]2 | [EG]6[K:bass] z2 | %30
w: |||
 z2 B,2[K:treble] G2 [B,EG]2 | z2 B4 c2 | e>d c>B c>B A>G | c6 z2 | e6 z2 | B2 e4 E>F | %36
w: ||||||
 G>A B>c B2 [Ad]2 | [Ge]6 z2 |] %38
w: ||
V:2
 .[E,,B,,]2 z2 .[E,,B,,]2 z2 | E,F,G,A, B,4 | .[F,,C,F,]2 z2 .[F,,C,F,]2 z2 | F,G,A,B, C4 | %4
 .[B,,F,]2 z2 .[B,,F,]2 z2 | B,CDE FB,[B,=A][B,_A] | %6
 [E,B,]2 z z/[K:treble] c/[K:bass] E,2 [B,,B,]2 | [E,B,E]2 [B,,B,]2 [E,G,B,]2 [B,,G,]2 | %8
 [E,B,E]2 [B,,B,]2 [F,B,D]2 [A,B,D]2 | [G,B,E]2 [G,B,]2 [F,A,]2 [B,,B,]2 | %10
 [E,B,]2 z z/[K:treble] c/[K:bass] E,2 [B,,B,]2 | [E,B,E]2 [B,,B,]2 [E,G,B,]2 [=E,B,_D]2 | %12
 [F,B,D]2 [F,DF]2 [F,CE]2 [F,CE]2 | [B,,B,]2 F,2 B,,2 z2 | B,,2 z z/[K:treble] c/ z z/ A/ z z/ F/ | %15
 z z/ D/ z z/[K:treble] F/ E2[K:bass] B,2 | B,,2 z z/[K:treble] c/ z z/ A/ z z/ F/ | %17
 z z/ D/ z z/[K:treble] F/ E2 B,2 | [A,E]2 [A,E]>[K:bass][A,E] [G,B,E]2 [G,B,]2 | %19
 [F,CE]2 [B,,B,]2 [E,B,E]3 [E,B,E] | [F,B,D]2 [F,DF]2 [F,B,F]2 [F,=A,E]2 |[M:9/8] .B,6 z3 | %22
[M:4/4] [E,G,B,]2 [B,,G,]2 [E,B,E]2 z A | E,2 B,,2 E,2 [B,,B,]2 | %24
 [E,B,]2 [B,,B,]2 [E,B,]2 [B,,B,]2 | [F,B,]2 B,,2 F,2 B,,2 | [F,A,C]2 [C,A,]2 [F,A,CF]2 [C,A,C]2 | %27
 [F,A,C]2 [C,A,C]2 [F,A,]2 B,->[E,B,] | [F,B,]2 z z/[K:treble] c/ z z/ c/ z z/ A/ | %29
 E,2 B,,2 C,2 D,2 | [E,G,B,]2 [B,,G,]2 [E,B,E]2 z A | E,2 B,,2 E,2 [B,,B,]2 | z4 z2 [F,D]2 | %33
 [A,E]2 [G,B,]2 [F,A,]2 z2 | z4[K:treble] z2 D2 | [B,EG]2[K:bass] [G,B,E]4 E,>F, | %36
 G,>A, B,>C B,2 [B,,B,]2 | [E,B,]6 z2 |] %38
V:3
 x8 | x8 | x8 | x8 | x8 | x8 | z2 [B,,B,]2[K:treble][K:bass] z4 | x8 | x8 | x8 | %10
 z2 [B,,B,]2[K:treble][K:bass] z4 | x8 | x8 | x8 | z2 B,2[K:treble] D2 B,2 | %15
 E,2 B,2[K:treble] z4[K:bass] | z2 B,2[K:treble] D2 B,2 | E,2 B,2[K:treble] z4 | %18
 x7/2[K:bass] x9/2 | x8 | x8 |[M:9/8] B,,6- B,, z z |[M:4/4] z4 z2 B,,2 | x8 | x8 | x8 | x8 | %27
 z4 z2 D,2 | z2 [B,,B,]2[K:treble] D,2 D,2 | x8 | z4 z2 B,,2 | x8 | %32
 [E,B,]2 [B,,B,]2 [E,B,]2 B,->[G,B,E] | x8 | =A,,2[K:treble] [=A,CE]2 [A,CE]2 [A,_G]->[A,EG] | %35
 x2[K:bass] x6 | x8 | x8 |] %38
V:4
 x8 | x8 | x8 | x8 | x8 | x8 | x8 | G2 GG z2 B,2 | G2 E->[EG] A2 F2 | z2 E2 C2 D2 | x8 | %11
 G2 GG E2 G2 | x8 | z4 B,2 z2 | x8 | x8 | x8 | x8 | x8 | x8 | x8 |[M:9/8] z3 z A,2- A, z z | %22
[M:4/4] E4 z4 | [B,EGB]2 [B,EG]2 [B,EG]2 G->[Gd] | G2 G2 z4 | z2 B,2 B,2 B,2 | z2 C2 z2 z B | %27
 z2 A2 z2 A2 | A2 z2 z4 | B,2[K:bass] B,2 B,2 A,2 | E4[K:treble] z4 | %31
 [B,EGB]2 [B,EG]2 [B,EG]2 G->[Gd] | G2 G2 G2 z2 | z2 =E2 F2 z2 | _G2 (3GGG G2 d>c | x8 | x8 | x8 |] %38
V:5
 x8 | x8 | x8 | x8 | x8 | x8 | x8 | z2 E2 E4 | x8 | x8 | x8 | z2 E2 z4 | x8 | x8 | x8 | x8 | x8 | %17
 x8 | x8 | x8 | x8 |[M:9/8] x9 |[M:4/4] x8 | x8 | x8 | x8 | z4 z2 F2 | x8 | x8 | x2[K:bass] x6 | %30
 x4[K:treble] x4 | x8 | x8 | x8 | x8 | x8 | x8 | x8 |] %38

